src/svg/message-typing.svg

<svg version="1.2" baseProfile="tiny" xmlns="http://www.w3.org/2000/svg" width="24" height="24" viewBox="0 0 24 24"><path d="M18 6h-13c-1.65 0-3 1.35-3 3v7c0 1.65 1.35 3 3 3h1v3l3-3h9c1.65 0 3-1.35 3-3v-7c0-1.65-1.35-3-3-3zm1 10c0 .542-.458 1-1 1h-13c-.542 0-1-.458-1-1v-7c0-.542.458-1 1-1h13c.542 0 1 .458 1 1v7zM7 14.5c-1.104 0-2-.896-2-2s.896-2 2-2 2 .896 2 2-.896 2-2 2zm0-3c-.552 0-1 .448-1 1s.448 1 1 1 1-.448 1-1-.448-1-1-1zM11.5 14.5c-1.104 0-2-.896-2-2s.896-2 2-2 2 .896 2 2-.896 2-2 2zm0-3c-.552 0-1 .448-1 1s.448 1 1 1 1-.448 1-1-.448-1-1-1zM16 14.5c-1.104 0-2-.896-2-2s.896-2 2-2 2 .896 2 2-.896 2-2 2zm0-3c-.552 0-1 .448-1 1s.448 1 1 1 1-.448 1-1-.448-1-1-1z"/></svg>

<?xml version="1.0" encoding="iso-8859-1"?>
<!-- Generator: Adobe Illustrator 16.2.1, SVG Export Plug-In . SVG Version: 6.00 Build 0)  -->
<svg version="1.2" baseProfile="tiny" id="Layer_1" xmlns="http://www.w3.org/2000/svg" xmlns:xlink="http://www.w3.org/1999/xlink"
	 x="0px" y="0px" width="24px" height="24px" viewBox="0 0 24 24" xml:space="preserve">
<path d="M18,6H5C3.35,6,2,7.35,2,9v7c0,1.65,1.35,3,3,3h1v3l3-3h9c1.65,0,3-1.35,3-3V9C21,7.35,19.65,6,18,6z M19,16
	c0,0.542-0.458,1-1,1H5c-0.542,0-1-0.458-1-1V9c0-0.542,0.458-1,1-1h13c0.542,0,1,0.458,1,1V16z"/>
<g>
	<path d="M7,14.5c-1.104,0-2-0.896-2-2s0.896-2,2-2s2,0.896,2,2S8.104,14.5,7,14.5z M7,11.5c-0.552,0-1,0.448-1,1s0.448,1,1,1
		s1-0.448,1-1S7.552,11.5,7,11.5z"/>
</g>
<g>
	<path d="M11.5,14.5c-1.104,0-2-0.896-2-2s0.896-2,2-2s2,0.896,2,2S12.604,14.5,11.5,14.5z M11.5,11.5c-0.552,0-1,0.448-1,1
		s0.448,1,1,1s1-0.448,1-1S12.052,11.5,11.5,11.5z"/>
</g>
<g>
	<path d="M16,14.5c-1.104,0-2-0.896-2-2s0.896-2,2-2s2,0.896,2,2S17.104,14.5,16,14.5z M16,11.5c-0.552,0-1,0.448-1,1s0.448,1,1,1
		s1-0.448,1-1S16.552,11.5,16,11.5z"/>
</g>
</svg>
